Sources/FrostedUI/Resources/Icons.xcassets/gift16.imageset/gift-16.svg

<svg width="16" height="16" viewBox="0 0 16 16" fill="none" xmlns="http://www.w3.org/2000/svg" data-fui-icon="true">
  <path
    d="M5.93457 1C6.79227 1 7.56448 1.44883 8 2.14746C8.43552 1.44883 9.20773 1 10.0654 1H10.25C11.4926 1 12.5 2.00736 12.5 3.25C12.5 3.51996 12.4495 3.77774 12.3623 4.01758H13.4902C14.324 4.0177 14.9999 4.69358 15 5.52734V6.99902C14.9999 7.65359 14.5825 8.20861 14 8.41797V12.8799C14 14.0507 13.0507 15 11.8799 15H4.12012C2.94927 15 2 14.0507 2 12.8799V8.41797C1.41749 8.20861 1.0001 7.65359 1 6.99902V5.52734C1.00013 4.69358 1.676 4.0177 2.50977 4.01758H3.6377C3.55052 3.77774 3.5 3.51996 3.5 3.25C3.5 2.00736 4.50736 1 5.75 1H5.93457ZM3.5 12.8799C3.5 13.2223 3.7777 13.5 4.12012 13.5H7.25V8.50879H3.5V12.8799ZM8.75 13.5H11.8799C12.2223 13.5 12.5 13.2223 12.5 12.8799V8.50879H8.75V13.5ZM2.5 5.52344V7.00293L2.50586 7.00879H7.25V5.51758H2.50586L2.5 5.52344ZM8.75 7.00879H13.4941L13.5 7.00293V5.52344L13.4941 5.51758H8.75V7.00879ZM5.75 2.5C5.33579 2.5 5 2.83579 5 3.25C5 3.66421 5.33579 4 5.75 4H7.04004L6.8418 3.20801C6.73778 2.79193 6.36345 2.5 5.93457 2.5H5.75ZM10.0654 2.5C9.63655 2.5 9.26222 2.79193 9.1582 3.20801L8.95996 4H10.25C10.6642 4 11 3.66421 11 3.25C11 2.83579 10.6642 2.5 10.25 2.5H10.0654Z"
    fill="currentColor"
  />
</svg>

<svg xmlns="http://www.w3.org/2000/svg" width="16" height="16" fill="none" data-fui-icon="true" viewBox="0 0 16 16"><path fill="currentColor" d="M5.935 1c.857 0 1.63.449 2.065 1.147A2.43 2.43 0 0 1 10.065 1h.185a2.25 2.25 0 0 1 2.25 2.25c0 .27-.05.528-.138.768h1.128c.834 0 1.51.676 1.51 1.51v1.471c0 .655-.418 1.21-1 1.419v4.462c0 1.17-.95 2.12-2.12 2.12H4.12A2.12 2.12 0 0 1 2 12.88V8.418c-.583-.21-1-.764-1-1.419V5.527c0-.833.676-1.51 1.51-1.51h1.128A2.2 2.2 0 0 1 3.5 3.25 2.25 2.25 0 0 1 5.75 1zM3.5 12.88c0 .342.278.62.62.62h3.13V8.509H3.5zm5.25.62h3.13a.62.62 0 0 0 .62-.62V8.509H8.75zM2.5 5.523v1.48l.006.006H7.25V5.518H2.506zM8.75 7.01h4.744l.006-.006v-1.48l-.006-.005H8.75zm-3-4.509a.75.75 0 0 0 0 1.5h1.29l-.198-.792a.935.935 0 0 0-.907-.708zm4.315 0a.935.935 0 0 0-.907.708L8.96 4h1.29a.75.75 0 0 0 0-1.5z"/></svg>
